X: 5
T:The Glen Road to Carrick
M:4/4
L:1/8
C:Trad.
R:Reel
K:G
|:AG|FD (3DDD FDGE|FDEG AdAG|FD (3DDD FGAD|EdcA G2:|
(3EFG|Addc AcAG|FAdc A3 G|Addc AGFD|EdcA G2 (3EFG|
Addc AcAG|FAdc A2 (3AB^c|defd ABAF|EdcA G2 g2||
fd (3ddd fdge|fdfg abag|fd (3ddd fdef|gabg e3 g|
fd (3ddd fdge|fdfg abag|fd (3ddd fdef|gabg e2 g||
fdec (3d^cB AG|FAdF A2 (3AB^c|defd ABAF|Ed=cA Ggeg|
fdec (3d^cB AG|FAdF A2 (3AB^c|defd ABAF|Ed=cA G2||
(3AB^c|:dD (3DDD AD (3DDD|dD (3DDD A2 (3AB^c|1dD (3DDD DFAF|GE=CE G2 (3A
B^c:|
2defd ABAF|EdcA G2||

